icons/share-24-f.svg

<svg xmlns="http://www.w3.org/2000/svg" viewBox="0 0 24 24"><title>share-24-f</title><g id="icons"><path d="M21.8999,14H22v8H2V2H14V3H3V21H21V14ZM17.6543,4.33936,20,7H15.22662a6.27386,6.27386,0,0,0-6.21978,6.5v3.39844H10v-3.4336a5.50654,5.50654,0,0,1,5.5-5.5h4.78021L17.59668,10.648l.707.707,3.89063-3.89014-3.833-3.83252Z"/></g></svg>

<svg xmlns="http://www.w3.org/2000/svg" viewBox="0 0 24 24"><path d="M21.9 14h.1v8H2V2h12v1H3v18h18v-7zm-4.246-9.66L20 7h-4.773a6.274 6.274 0 00-6.22 6.5v3.398H10v-3.433a5.507 5.507 0 015.5-5.5h4.78l-2.683 2.683.707.707 3.89-3.89-3.833-3.833z"/></svg>
